!!!!SEGMENT: pl-wnifc--13846--067_anonim--67-kazala-solocha-pryjdy-szczos-dam.krn
!!!kernsource:
!!!cenid: 18xx:3289
!!!COM: Anonim
!!!COM-rismid: pe30004985
!!!CDT:
!!!CNT:
!!!GTL: Pieśni polskie i ruskie ludu galicyjskiego
!!!OTL: 67. Kazała Sołocha pryjdy szczoś dam
!!!PDT: 1833
!!!AGN:
!!!SMS-siglum: PL-Wnifc
!!!SMS-shelfmark: 13846
!!!SMS-shelfwork: 067 G
!!!SMS-variant:
!!!SMS-altvar:
!!!NIFC-rismid: 1001037179
!!!URL-scan: http://repozytorium.nifc.pl/skany/pl-wnifc-nut--13846
!!!ONB-nifc:
!!!OMD: Allegro Moderato.
!!!key: g
**kern	**kern	**dynam	**kern	**text
*part2	*part2	*part2	*part1	*part1
*staff3	*staff2	*	*staff1	*staff1
*I"Fortepian	*I"Fortepian	*	*I"Głos	*
*Ipiano	*Ipiano	*	*Ivox	*
*ICklav	*ICklav	*	*ICvox	*
*IGacmp	*IGacmp	*	*IGsolo	*
*clefF4	*clefG2	*	*clefG2	*
*k[b-e-]	*k[b-e-]	*	*k[b-e-]	*
*g:	*g:	*	*g:	*
*M3/4	*M3/4	*	*M3/4	*
=1	=1	=1	=1	=1
!	!	!	!LO:TX:a:t=E.2.	!
.	.	.	8qqb-/	.
4GG/	4b-\ 4dd\	.	4dd\	Ka-
4G\	4b-\ 4dd\	.	4dd\	-za-
4G\	4g\ 4b-\	.	4b-\	-ła
=2	=2	=2	=2	=2
4E-\	4a\ 4cc\	.	4cc\	So-
2C/^	2g\^< 2ee-\	.	2ee-\	-łocha
=3	=3	=3	=3	=3
4DD\ 4D\	4f#X\ 4dd\	.	4dd\	pryj-
*	*	*^	*	*
!	!	!LO:DY:rj	!LO:DY:b=2:rj	!	!
4.D\ 4.A\	4.f#\ 4.dd\	sf	sf	(4.dd\	-dy-
8D\ 8A\	8f#\ 8cc\	.	.	8cc\)	.
*	*	*v	*v	*	*
=4	=4	=4	=4	=4
*^	*	*	*	*
4G/	4G\	4d/ 4g/ 4b-/	.	4b-\	-szczoś
2B-/	2G\^	2d/^ 2g/	.	2g/	dam,
*v	*v	*	*	*	*
!!LO:LB:g=original
=5	=5	=5	=5	=5
.	.	.	8qqb-/	.
4GGG/ 4GG/	4d/ 4g/ 4dd/	.	4dd\	ka-
4BBB-/ 4BB-/	4d/ 4g/ 4dd/	.	4dd\	-za-
*	*^	*	*	*
4GGG/ 4GG/	4b-/	4d\ 4g\	.	4b-\	-ła
*	*v	*v	*	*	*
=6	=6	=6	=6	=6
4EE-/ 4E-/	4c\ 4g\ 4cc\	.	4cc\	ne-
2CC/^> 2C/	2e-\^< 2g\ 2cc\ 2ee-\	.	2ee-\	-boha
=7	=7	=7	=7	=7
4DD/	4d\ 4f#X\ 4a\ 4dd\	.	4dd\	pryj-
4.D\ 4.A\	4.f#\ 4.dd\	.	(4.dd\	-dy-
8D\ 8A\	8f#\ 8cc\	.	8cc\)	.
=8	=8	=8	=8	=8
*	*^	*	*	*
4G\ 4B-\	8b-/L	4d\	.	8b-/L	-szczoś
.	8a/J	.	.	8a/J	.
2G\ 2B-\	2g/	2d\	.	2g/	dam
*	*v	*v	*	*	*
!!LO:LB:g=original
=9	=9	=9	=9	=9
*^	*	*	*	*
8DD/L	2.DD\	4d/ 4a/	.	4a/	szczoś
8FF#X/	.	.	.	.	.
8AA/	.	2d/ 2dd/	.	2dd\	dam
8D/	.	.	.	.	.
8F#y/	.	.	.	.	.
8D/J	.	.	.	.	.
=10	=10	=10	=10	=10	=10
(<8DD/L	2.DD\	4d/ 4a/	.	4a/	szczoś
!LO:SIC:v:s=8FF#/	!	!	!	!	!
8FF/	.	.	.	.	.
8AA/	.	2d/ 2dd/	.	2dd\	dam
8D/	.	.	.	.	.
!LO:SIC:v:s=8F#/	!	!	!	!	!
8F/	.	.	.	.	.
8D/J)	.	.	.	.	.
*v	*v	*	*	*	*
=11	=11	=11	=11	=11
!LO:TX:t=P:problem:mixed beam	!	!	!	!
8DD/L	4d/ 4a/	.	4a/	pryj-
8D\J	.	.	.	.
*tremolo	*	*	*	*
8F#X\ 8A\L	4.d/ 4.dd/	.	(4.dd\	-dy-
8D\	.	.	.	.
8F#X\ 8A\	.	.	.	.
8D\J	8d/ 8cc/	.	8cc\)	.
=12	=12	=12	=12	=12
8G\ 8B-\L	(8d/L 8b-/	.	(8b-/L	-szczoś
8d\	8a/J)	.	8a/J)	.
8G\ 8B-\	2g/	.	2g/	dam
8d\J	.	.	.	.
8B-\L	.	.	.	.
8G\J	.	.	.	.
!!LO:LB:g=original
=13	=13	=13	=13	=13
(8DD/L	4d/ 4a/	.	4a/	ka-
8FF#X/	.	.	.	.
8AA/	2d/ 2dd/	.	2dd\;	-zała
8D\	.	.	.	.
8F#y\	.	.	.	.
8D\J)	.	.	.	.
=14	=14	=14	=14	=14
(8DD/L	4d/ 4a/	.	4a/	So-
8FF#X/	.	.	.	.
8AA/	2d/ 2dd/	.	2dd\;	-łocha
8D\	.	.	.	.
8F#y\	.	.	.	.
8D\J)	.	.	.	.
=15	=15	=15	=15	=15
8DD/L	4d/ 4a/	.	4a/	pryj-
8D\J	.	.	.	.
8F#X\ 8A\L	4.d/ 4.dd/	.	(4.dd\	-dy-
8D\	.	.	.	.
8F#X\ 8A\	.	.	.	.
8D\J	8d/ 8cc/	.	8cc\)	.
=16	=16	=16	=16	=16
8G\ 8B-\L	(<8b-/L	.	(8b-/L	-szczoś
8d\	8a/J)	.	8a/J)	.
8G\ 8B-\	2g/	.	2g/	dam
8d\J	.	.	.	.
*Xtremolo	*	*	*	*
4G\ 4B-\	.	.	.	.
!!LO:LB:g=original
==	==	==	==	==
*-	*-	*-	*-	*-
!!!system-decoration: s1,{(s2,s3)}
!!!RDF**kern: < = below
!!!RDF**kern: > = above
!!!ENC: Marta Chmielewska
!!!END: 2021-11-11
